X: 26458
T: Metsäkukkia
R: waltz
M: 3/4
K: Gminor
P: 3rd part - alternate
|:g^f|.g2 z2 d^c|.d2 z2 BA|.B2 zG G^F|(3GAG B2 d2|e2 ef ed|c2 ce g2|d2 de d^c|d4 D2|
D2 ^F3 G|A4 GF|D2 G2 A2|B3 D DE|D3 ^C2 D|B4 A2|G6-|1 -Gz z2:|2 G6-||

